X:65
T:Chief O'Neill's Favourite                                                                         
M:C|                                                                                                
L:1/8                                                                                               
K:D                                                                                                 
de|fefg afge|fded dcAG|FEFD (3EFG AB|cAdc A2 de|                                                    
fefg afge|fded dcAG|FEFD GBAG|F2 D2 D2 :|                                                           
DE|=F3 G AGAB|=cAdB cAGB|Adde fded|^cAdc A2 de|                                                     
fefg afge|fded dcAG|F3 D GBAG|F2 D2 D2 :|
